src/assets/images/svg/fill-camera.svg

<svg xmlns="http://www.w3.org/2000/svg" viewBox="0 0 24 24"><defs><style>.cls-1{fill:none;}</style></defs><title>07</title><g id="fill-camera"><rect class="cls-1" width="24" height="24"/><path d="M14.4,12.65a2.4,2.4,0,1,1-2.4-2.4A2.43,2.43,0,0,1,14.4,12.65Zm-6-5.9,1.4-1.5h4.5l1.4,1.5H18a1.54,1.54,0,0,1,1.5,1.5v9a1.54,1.54,0,0,1-1.5,1.5H6a1.54,1.54,0,0,1-1.5-1.5v-9A1.54,1.54,0,0,1,6,6.75Zm-.2,6A3.8,3.8,0,1,0,12,9,3.8,3.8,0,0,0,8.2,12.75Z"/></g></svg>

<svg width="24" height="24" viewBox="0 0 24 24" fill="none" xmlns="http://www.w3.org/2000/svg">
<path d="M14.4 12.65C14.4 13.95 13.3 15.05 12 15.05C10.7 15.05 9.6 13.95 9.6 12.65C9.6 11.35 10.7 10.25 12 10.25C13.3 10.25 14.4 11.35 14.4 12.65ZM8.4 6.75L9.8 5.25H14.3L15.7 6.75H18C18.8 6.75 19.5 7.45 19.5 8.25V17.25C19.5 18.05 18.8 18.75 18 18.75H6C5.2 18.75 4.5 18.05 4.5 17.25V8.25C4.5 7.45 5.2 6.75 6 6.75H8.4ZM8.2 12.75C8.2 14.85 9.9 16.55 12 16.55C14.1 16.55 15.8 14.85 15.8 12.75C15.8 10.65 14.1 8.95 12 8.95C9.9 8.95 8.2 10.65 8.2 12.75Z" fill="black"/>
</svg>
